svg/set/SPG/U.svg

<?xml version="1.0" encoding="UTF-8"?>
<svg id="Layer_2" data-name="Layer 2" xmlns="http://www.w3.org/2000/svg" xmlns:xlink="http://www.w3.org/1999/xlink" viewBox="0 0 1074.41 1023.09">
  <defs>
    <style>
      .cls-1 {
        fill: url(#linear-gradient);
      }

      .cls-1, .cls-2, .cls-3, .cls-4, .cls-5, .cls-6, .cls-7 {
        fill-rule: evenodd;
        stroke: #000;
        stroke-linecap: round;
        stroke-linejoin: round;
        stroke-width: 1.08px;
      }

      .cls-2 {
        fill: url(#linear-gradient-4);
      }

      .cls-3 {
        fill: url(#linear-gradient-2);
      }

      .cls-4 {
        fill: url(#linear-gradient-5);
      }

      .cls-5 {
        fill: url(#radial-gradient);
      }

      .cls-7 {
        fill: url(#linear-gradient-3);
      }
    </style>
    <radialGradient id="radial-gradient" cx="-421.96" cy="1047.98" fx="-421.96" fy="1047.98" r="1" gradientTransform="translate(-416260.66 183194.88) rotate(88.26) scale(402.84 -402.84)" gradientUnits="userSpaceOnUse">
      <stop offset="0" stop-color="#b6d0e0"/>
      <stop offset=".38" stop-color="#b5cede"/>
      <stop offset=".5" stop-color="#b7d1e1"/>
      <stop offset=".62" stop-color="#b5cede"/>
      <stop offset=".71" stop-color="#adc6d4"/>
      <stop offset=".8" stop-color="#a1b7c3"/>
      <stop offset=".8" stop-color="#a0b6c2"/>
      <stop offset=".85" stop-color="#8b9da8"/>
      <stop offset=".91" stop-color="#74838d"/>
      <stop offset=".96" stop-color="#67747d"/>
      <stop offset="1" stop-color="#626e77"/>
    </radialGradient>
    <linearGradient id="linear-gradient" x1="-421.96" y1="1047.98" x2="-420.96" y2="1047.98" gradientTransform="translate(638269.16 1168670.14) rotate(-14.46) scale(773.45 -1231.35)" gradientUnits="userSpaceOnUse">
      <stop offset="0" stop-color="#626e77"/>
      <stop offset=".04" stop-color="#697780"/>
      <stop offset=".11" stop-color="#7d8e98"/>
      <stop offset=".2" stop-color="#9eb4c0"/>
      <stop offset=".2" stop-color="#a1b7c3"/>
      <stop offset=".29" stop-color="#adc6d4"/>
      <stop offset=".38" stop-color="#b5cede"/>
      <stop offset=".5" stop-color="#b7d1e1"/>
      <stop offset=".62" stop-color="#b5cede"/>
      <stop offset=".71" stop-color="#adc6d4"/>
      <stop offset=".8" stop-color="#a1b7c3"/>
      <stop offset=".8" stop-color="#a0b6c2"/>
      <stop offset=".85" stop-color="#8b9da8"/>
      <stop offset=".91" stop-color="#74838d"/>
      <stop offset=".96" stop-color="#67747d"/>
      <stop offset="1" stop-color="#626e77"/>
    </linearGradient>
    <linearGradient id="linear-gradient-2" y1="1047.98" y2="1047.98" gradientTransform="translate(-591296.25 960436.8) rotate(-162.51) scale(655.38 1043.39)" xlink:href="#linear-gradient"/>
    <linearGradient id="linear-gradient-3" y1="1047.97" y2="1047.97" gradientTransform="translate(567408.98 78769.34) rotate(-53.09) scale(658.78 -477.38)" xlink:href="#linear-gradient"/>
    <linearGradient id="linear-gradient-4" y1="1047.96" y2="1047.96" gradientTransform="translate(-648373.97 99227.28) rotate(-127.7) scale(755.67 547.59)" xlink:href="#linear-gradient"/>
    <linearGradient id="linear-gradient-5" y1="1047.98" y2="1047.98" gradientTransform="translate(-385505.55 255053.33) rotate(89.35) scale(593.2 -371.08)" xlink:href="#linear-gradient"/>
  </defs>
  <g id="Layer_1-2" data-name="Layer 1">
    <g id="M">
      <path class="cls-6" d="M273.78,817.75l50.75-292.58-212.47-206.99,293.57-43.29L537,7.68l131.86,266.7,294.07,43.29-212.47,206.99,50.26,292.08-262.72-137.33-264.22,138.33Z"/>
      <g id="Ebene1">
        <path class="cls-6" d="M309.97,857.1l227.02,165.45,227.02-165.45-227.02-120.04-227.02,120.04Z"/>
        <g id="Ebene11">
          <path class="cls-6" d="M.54,632.14l86.62-267.18,183.75,178.65-43.63,253.49L.54,632.14Z"/>
          <path class="cls-6" d="M.54,632.14l86.62-267.18,183.75,178.65-43.63,253.49L.54,632.14Z"/>
        </g>
        <path class="cls-6" d="M1073.87,632.95l-86.62-267.18-183.75,178.65,43.63,253.49,226.74-164.96Z"/>
        <path class="cls-6" d="M702.78,230.67L588.96,1.16l281.13-.62,86.46,265.58-253.77-35.45Z"/>
        <path class="cls-6" d="M372.51,231.29L486.33,1.78l-281.13-.62-86.46,265.58,253.77-35.45Z"/>
      </g>
      <g id="Ebene2">
        <path class="cls-5" d="M177.3,338.87l248.17-36.07,111.33-225.78,111.96,225.16,248.79,36.7-179.13,175.4,42.29,248.17-222.67-116.93-223.29,115.69,41.67-246.92-179.13-175.4Z"/>
        <path class="cls-1" d="M206.12,742.98l32.96-187.84-137.46-134.97-65.31,200.28,169.8,122.53Z"/>
        <path class="cls-3" d="M868.63,745.41l-32.96-187.84,137.46-134.97,65.31,200.28-169.8,122.53Z"/>
        <path class="cls-7" d="M912.71,231.18l-65.18-199.03h-209.48l84.59,171.17,190.08,27.86Z"/>
        <path class="cls-2" d="M162.08,230.96L227.26,31.93h209.48l-84.59,171.17-190.08,27.86Z"/>
        <path class="cls-4" d="M367.17,860.65l169.68-88.57,169.18,88.57-168.68,123.4-170.17-123.4Z"/>
      </g>
    </g>
  </g>
</svg>

<?xml version="1.0" encoding="UTF-8" standalone="no"?>
<svg
   id="Layer_2"
   data-name="Layer 2"
   viewBox="0 0 1074.41 1023.0899"
   version="1.1"
   width="1074.41"
   height="1023.09"
   xmlns:xlink="http://www.w3.org/1999/xlink"
   xmlns="http://www.w3.org/2000/svg"
   xmlns:svg="http://www.w3.org/2000/svg">
  <defs
     id="defs27">
    <style
       id="style1">
      .cls-1 {
        fill: url(#linear-gradient);
      }

      .cls-1, .cls-2, .cls-3, .cls-4, .cls-5, .cls-6, .cls-7 {
        fill-rule: evenodd;
        stroke: #000;
        stroke-linecap: round;
        stroke-linejoin: round;
        stroke-width: 1.08px;
      }

      .cls-2 {
        fill: url(#linear-gradient-4);
      }

      .cls-3 {
        fill: url(#linear-gradient-2);
      }

      .cls-4 {
        fill: url(#linear-gradient-5);
      }

      .cls-5 {
        fill: url(#radial-gradient);
      }

      .cls-7 {
        fill: url(#linear-gradient-3);
      }
    </style>
    <radialGradient
       id="radial-gradient"
       cx="-421.95999"
       cy="1047.98"
       fx="-421.95999"
       fy="1047.98"
       r="1"
       gradientTransform="matrix(12.231858,402.65425,402.65425,-12.231858,-416260.66,183194.88)"
       gradientUnits="userSpaceOnUse">
      <stop
         offset="0"
         stop-color="#b6d0e0"
         id="stop1" />
      <stop
         offset=".38"
         stop-color="#b5cede"
         id="stop2" />
      <stop
         offset=".5"
         stop-color="#b7d1e1"
         id="stop3" />
      <stop
         offset=".62"
         stop-color="#b5cede"
         id="stop4" />
      <stop
         offset=".71"
         stop-color="#adc6d4"
         id="stop5" />
      <stop
         offset=".8"
         stop-color="#a1b7c3"
         id="stop6" />
      <stop
         offset=".8"
         stop-color="#a0b6c2"
         id="stop7" />
      <stop
         offset=".85"
         stop-color="#8b9da8"
         id="stop8" />
      <stop
         offset=".91"
         stop-color="#74838d"
         id="stop9" />
      <stop
         offset=".96"
         stop-color="#67747d"
         id="stop10" />
      <stop
         offset="1"
         stop-color="#626e77"
         id="stop11" />
    </radialGradient>
    <linearGradient
       id="linear-gradient"
       x1="-421.95999"
       y1="1047.98"
       x2="-420.95999"
       y2="1047.98"
       gradientTransform="matrix(748.94881,-193.1336,-307.47308,-1192.3435,638269.16,1168670.1)"
       gradientUnits="userSpaceOnUse">
      <stop
         offset="0"
         stop-color="#626e77"
         id="stop12" />
      <stop
         offset=".04"
         stop-color="#697780"
         id="stop13" />
      <stop
         offset=".11"
         stop-color="#7d8e98"
         id="stop14" />
      <stop
         offset=".2"
         stop-color="#9eb4c0"
         id="stop15" />
      <stop
         offset=".2"
         stop-color="#a1b7c3"
         id="stop16" />
      <stop
         offset=".29"
         stop-color="#adc6d4"
         id="stop17" />
      <stop
         offset=".38"
         stop-color="#b5cede"
         id="stop18" />
      <stop
         offset=".5"
         stop-color="#b7d1e1"
         id="stop19" />
      <stop
         offset=".62"
         stop-color="#b5cede"
         id="stop20" />
      <stop
         offset=".71"
         stop-color="#adc6d4"
         id="stop21" />
      <stop
         offset=".8"
         stop-color="#a1b7c3"
         id="stop22" />
      <stop
         offset=".8"
         stop-color="#a0b6c2"
         id="stop23" />
      <stop
         offset=".85"
         stop-color="#8b9da8"
         id="stop24" />
      <stop
         offset=".91"
         stop-color="#74838d"
         id="stop25" />
      <stop
         offset=".96"
         stop-color="#67747d"
         id="stop26" />
      <stop
         offset="1"
         stop-color="#626e77"
         id="stop27" />
    </linearGradient>
    <linearGradient
       id="linear-gradient-2"
       y1="1047.98"
       y2="1047.98"
       gradientTransform="matrix(-625.0814,-196.96747,313.57974,-995.15347,-591296.25,960436.8)"
       xlink:href="#linear-gradient" />
    <linearGradient
       id="linear-gradient-3"
       y1="1047.97"
       y2="1047.97"
       gradientTransform="matrix(395.63678,-526.74722,-381.70343,-286.69523,567408.98,78769.34)"
       xlink:href="#linear-gradient" />
    <linearGradient
       id="linear-gradient-4"
       y1="1047.96"
       y2="1047.96"
       gradientTransform="matrix(-462.11264,-597.90389,433.26609,-334.86609,-648373.97,99227.28)"
       xlink:href="#linear-gradient" />
    <linearGradient
       id="linear-gradient-5"
       y1="1047.98"
       y2="1047.98"
       gradientTransform="matrix(6.7294962,593.16183,371.05612,-4.2096788,-385505.55,255053.33)"
       xlink:href="#linear-gradient" />
    <linearGradient
       xlink:href="#linear-gradient"
       id="linearGradient39"
       gradientUnits="userSpaceOnUse"
       gradientTransform="matrix(748.94881,-193.1336,-307.47308,-1192.3435,638269.16,1168670.1)"
       x1="-421.95999"
       y1="1047.98"
       x2="-420.95999"
       y2="1047.98" />
  </defs>
  <g
     id="Layer_1-2"
     data-name="Layer 1">
    <g
       id="M">
      <path
         class="cls-6"
         d="M 273.78,817.75 324.53,525.17 112.06,318.18 405.63,274.89 537,7.68 668.86,274.38 962.93,317.67 750.46,524.66 800.72,816.74 538,679.41 273.78,817.74 Z"
         id="path27" />
      <g
         id="Ebene1">
        <path
           class="cls-6"
           d="M 309.97,857.1 536.99,1022.55 764.01,857.1 536.99,737.06 Z"
           id="path28" />
        <g
           id="Ebene11">
          <path
             class="cls-6"
             d="M 0.54,632.14 87.16,364.96 270.91,543.61 227.28,797.1 Z"
             id="path29" />
          <path
             class="cls-6"
             d="M 0.54,632.14 87.16,364.96 270.91,543.61 227.28,797.1 Z"
             id="path30" />
        </g>
        <path
           class="cls-6"
           d="M 1073.87,632.95 987.25,365.77 803.5,544.42 847.13,797.91 Z"
           id="path31" />
        <path
           class="cls-6"
           d="M 702.78,230.67 588.96,1.16 870.09,0.54 956.55,266.12 Z"
           id="path32" />
        <path
           class="cls-6"
           d="M 372.51,231.29 486.33,1.78 205.2,1.16 118.74,266.74 Z"
           id="path33" />
      </g>
      <g
         id="Ebene2">
        <path
           class="cls-5"
           d="M 177.3,338.87 425.47,302.8 536.8,77.02 648.76,302.18 897.55,338.88 718.42,514.28 760.71,762.45 538.04,645.52 314.75,761.21 356.42,514.29 177.29,338.89 Z"
           id="path34"
           style="fill:url(#radial-gradient)" />
        <path
           class="cls-1"
           d="M 206.12,742.98 239.08,555.14 101.62,420.17 36.31,620.45 206.11,742.98 Z"
           id="path35"
           style="fill:url(#linearGradient39)" />
        <path
           class="cls-3"
           d="M 868.63,745.41 835.67,557.57 973.13,422.6 l 65.31,200.28 -169.8,122.53 z"
           id="path36"
           style="fill:url(#linear-gradient-2)" />
        <path
           class="cls-7"
           d="M 912.71,231.18 847.53,32.15 H 638.05 l 84.59,171.17 190.08,27.86 z"
           id="path37"
           style="fill:url(#linear-gradient-3)" />
        <path
           class="cls-2"
           d="M 162.08,230.96 227.26,31.93 H 436.74 L 352.15,203.1 162.07,230.96 Z"
           id="path38"
           style="fill:url(#linear-gradient-4)" />
        <path
           class="cls-4"
           d="M 367.17,860.65 536.85,772.08 706.03,860.65 537.35,984.05 367.18,860.65 Z"
           id="path39"
           style="fill:url(#linear-gradient-5)" />
      </g>
    </g>
  </g>
</svg>
